src/food-drink/food-asian/1F35C.svg

<?xml version="1.0" encoding="UTF-8"?>
<svg id="emoji" xmlns="http://www.w3.org/2000/svg" viewBox="0 0 72 72">
  <g id="grid">
    <path d="m68,4v64H4V4h64M72,0H0v72h72V0Z" fill="#b3b3b3"/>
    <path d="m12.9231,10.9583h46.1539c1.062,0,1.923.861,1.923,1.923h0v46.1539c0,1.0621-.861,1.9231-1.9231,1.9231H12.9231c-1.0621,0-1.9231-.861-1.9231-1.9231h0V12.8814c0-1.0621.861-1.9231,1.9231-1.9231h0Z" fill="none" stroke="#00a5ff" stroke-miterlimit="10" stroke-width=".1"/>
    <rect x="16" y="4" width="40" height="64" rx="2.2537" ry="2.2537" fill="none" stroke="#00a5ff" stroke-miterlimit="10" stroke-width=".1"/>
    <rect x="4" y="16" width="64" height="40" rx="2.2537" ry="2.2537" fill="none" stroke="#00a5ff" stroke-miterlimit="10" stroke-width=".1"/>
    <circle cx="36" cy="36" r="29" fill="none" stroke="#00a5ff" stroke-miterlimit="10" stroke-width=".1"/>
  </g>
  <g id="color">
    <path d="m62.92,35.0029c.0686-1.0352-.7149-1.9301-1.7502-1.9988-.0413-.0027-.0826-.0041-.124-.0041H11.0529c-1.0895-.002-1.9743.8795-1.9764,1.969-.0001.0542.002.1083.0064.1623.857,9.7287,7.53,17.9843,16.7945,21.7238v5.4866c.0335.9444.8226,1.6848,1.7672,1.6583h16.7108c.9445.0264,1.7335-.714,1.767-1.6583v-4.8424c9.712-3.3783,16.0713-12.1093,16.7976-22.4964Z" fill="#d22f27"/>
  </g>
  <g id="line">
    <line x1="61.4336" y1="21" x2="17.4336" y2="21" fill="none" stroke="#000" stroke-linecap="round" stroke-linejoin="round" stroke-width="2"/>
    <line x1="61.4336" y1="13" x2="17.4336" y2="13" fill="none" stroke="#000" stroke-linecap="round" stroke-linejoin="round" stroke-width="2"/>
    <line x1="34.2773" y1="10.8125" x2="34.4336" y2="33" fill="none" stroke="#000" stroke-linecap="round" stroke-linejoin="round" stroke-width="1.8409"/>
    <line x1="28.2773" y1="10.8125" x2="28.4336" y2="33" fill="none" stroke="#000" stroke-linecap="round" stroke-linejoin="round" stroke-width="1.8409"/>
    <line x1="22.2773" y1="10.8125" x2="22.4336" y2="33" fill="none" stroke="#000" stroke-linecap="round" stroke-linejoin="round" stroke-width="1.8409"/>
    <path d="m62.92,35.0029c.0686-1.0352-.7149-1.9301-1.7502-1.9988-.0413-.0027-.0826-.0041-.124-.0041H11.0529c-1.0895-.002-1.9743.8795-1.9764,1.969-.0001.0542.002.1083.0064.1623.857,9.7287,7.53,17.9843,16.7945,21.7238v5.4866c.0335.9444.8226,1.6848,1.7672,1.6583h16.7108c.9445.0264,1.7335-.714,1.767-1.6583v-4.8424c9.712-3.3783,16.0713-12.1093,16.7976-22.4964Z" fill="none" stroke="#000" stroke-linecap="round" stroke-linejoin="round" stroke-width="2"/>
  </g>
  <g id="color-foreground">
    <line x1="34.2773" y1="10.8125" x2="34.4336" y2="33" fill="none" stroke="#f1b31c" stroke-linecap="round" stroke-linejoin="round" stroke-width="1.8409"/>
    <line x1="28.2773" y1="10.8125" x2="28.4336" y2="33" fill="none" stroke="#f1b31c" stroke-linecap="round" stroke-linejoin="round" stroke-width="1.8409"/>
    <line x1="22.2773" y1="10.8125" x2="22.4336" y2="33" fill="none" stroke="#f1b31c" stroke-linecap="round" stroke-linejoin="round" stroke-width="1.8409"/>
  </g>
</svg>

<svg id="emoji" viewBox="0 0 72 72" xmlns="http://www.w3.org/2000/svg">
  <g id="grid">
    <path fill="#b3b3b3" d="M68,4V68H4V4H68m4-4H0V72H72V0Z"/>
    <path fill="none" stroke="#00a5ff" stroke-miterlimit="10" stroke-width="0.1" d="M12.9231,10.9583H59.077A1.923,1.923,0,0,1,61,12.8813V59.0352a1.9231,1.9231,0,0,1-1.9231,1.9231H12.9231A1.9231,1.9231,0,0,1,11,59.0352V12.8814A1.9231,1.9231,0,0,1,12.9231,10.9583Z"/>
    <rect x="16" y="4" rx="2.2537" ry="2.2537" width="40" height="64" fill="none" stroke="#00a5ff" stroke-miterlimit="10" stroke-width="0.1"/>
    <rect x="16" y="4" rx="2.2537" ry="2.2537" width="40" height="64" transform="translate(72) rotate(90)" fill="none" stroke="#00a5ff" stroke-miterlimit="10" stroke-width="0.1"/>
    <circle cx="36" cy="36" r="29" fill="none" stroke="#00a5ff" stroke-miterlimit="10" stroke-width="0.1"/>
  </g>
  <g id="color">
    <path fill="#d22f27" d="M62.92,35.0029A1.8786,1.8786,0,0,0,61.0458,33H11.0529a1.9727,1.9727,0,0,0-1.97,2.1313c.857,9.7287,7.53,17.9843,16.7945,21.7238v5.4866A1.72,1.72,0,0,0,27.6446,64H44.3554a1.72,1.72,0,0,0,1.767-1.6583V57.4993C55.8344,54.121,62.1937,45.39,62.92,35.0029Z"/>
  </g>
  <g id="line">
    <line x1="61.4336" x2="17.4336" y1="21" y2="21" fill="none" stroke="#000000" stroke-linecap="round" stroke-linejoin="round" stroke-width="2"/>
    <line x1="61.4336" x2="17.4336" y1="13" y2="13" fill="none" stroke="#000000" stroke-linecap="round" stroke-linejoin="round" stroke-width="2"/>
    <line x1="34.2773" x2="34.4336" y1="10.8125" y2="33" fill="none" stroke="#000000" stroke-linecap="round" stroke-linejoin="round" stroke-width="1.8409"/>
    <line x1="28.2773" x2="28.4336" y1="10.8125" y2="33" fill="none" stroke="#000000" stroke-linecap="round" stroke-linejoin="round" stroke-width="1.8409"/>
    <line x1="21.2773" x2="21.4336" y1="10.8125" y2="33" fill="none" stroke="#000000" stroke-linecap="round" stroke-linejoin="round" stroke-width="1.8409"/>
    <path fill="none" stroke="#000000" stroke-linecap="round" stroke-linejoin="round" stroke-width="2" d="M62.92,35.0029A1.8786,1.8786,0,0,0,61.0458,33H11.0529a1.9727,1.9727,0,0,0-1.97,2.1313c.857,9.7287,7.53,17.9843,16.7945,21.7238v5.4866A1.72,1.72,0,0,0,27.6446,64H44.3554a1.72,1.72,0,0,0,1.767-1.6583V57.4993C55.8344,54.121,62.1937,45.39,62.92,35.0029Z"/>
  </g>
  <g id="color-foreground">
    <line x1="34.2773" x2="34.4336" y1="10.8125" y2="33" fill="none" stroke="#f1b31c" stroke-linecap="round" stroke-linejoin="round" stroke-width="1.8409"/>
    <line x1="28.2773" x2="28.4336" y1="10.8125" y2="33" fill="none" stroke="#f1b31c" stroke-linecap="round" stroke-linejoin="round" stroke-width="1.8409"/>
    <line x1="21.2773" x2="21.4336" y1="10.8125" y2="33" fill="none" stroke="#f1b31c" stroke-linecap="round" stroke-linejoin="round" stroke-width="1.8409"/>
  </g>
</svg>
